X: 1
T: Christmas in the Trenches
M: 4/4
L: 1/4
K: C
G |\
"C"e f g f | "Am"e3/ d/ c c | "F"A3/ A/ A G | "Dm"F3 c |\
"G"B3/ B/ B c | d c B A | "F"A3/ G/ G A | "C"G3 ||
G |\
"C"e f g f | "Am"e d c c | "F"A3/ A/ A G | "Dm"F3 c |\
"G"B3/ B/ B c | d c B c | "C"c4- |  c2 z |]
c |\
"G"B/ B3/ B c | d c B A | "F"A G G/ A3/ | "C"G3 e |\
"Am"e d c d | "Em"d3/ d/ c c | "F"A3/ A/ B c | "G"d3 ||
G |\
"C"e f g f | "Am"e d c2 | "F"A/ A3/ A G | "Dm"F3 c |\
"G"B3/ B/ B c | d c B3/ c/ | "C"c4- | c2 z |]
